src/pos-icons/server-security.svg

<svg height="24" viewBox="0 0 24 24" width="24" xmlns="http://www.w3.org/2000/svg"><path d="m3 1h16a1 1 0 0 1 1 1v4a1 1 0 0 1 -1 1h-16a1 1 0 0 1 -1-1v-4a1 1 0 0 1 1-1m0 8h16a1 1 0 0 1 1 1v.67l-2.5-1.11-6.5 2.88v2.56h-8a1 1 0 0 1 -1-1v-4a1 1 0 0 1 1-1m0 8h8c.06 2.25 1 4.4 2.46 6h-10.46a1 1 0 0 1 -1-1v-4a1 1 0 0 1 1-1m5-12h1v-2h-1zm0 8h1v-2h-1zm0 8h1v-2h-1zm-4-18v2h2v-2zm0 8v2h2v-2zm0 8v2h2v-2zm13.5-7 4.5 2v3c0 2.78-1.92 5.37-4.5 6-2.58-.63-4.5-3.22-4.5-6v-3zm0 1.94-2.5 1.12v2.66c0 1.54 1.07 2.98 2.5 3.34z"/></svg>

<?xml version="1.0" encoding="UTF-8"?><!DOCTYPE svg PUBLIC "-//W3C//DTD SVG 1.1//EN" "http://www.w3.org/Graphics/SVG/1.1/DTD/svg11.dtd"><svg xmlns="http://www.w3.org/2000/svg" xmlns:xlink="http://www.w3.org/1999/xlink" version="1.1" id="mdi-server-security" width="24" height="24" viewBox="0 0 24 24"><path d="M3,1H19A1,1 0 0,1 20,2V6A1,1 0 0,1 19,7H3A1,1 0 0,1 2,6V2A1,1 0 0,1 3,1M3,9H19A1,1 0 0,1 20,10V10.67L17.5,9.56L11,12.44V15H3A1,1 0 0,1 2,14V10A1,1 0 0,1 3,9M3,17H11C11.06,19.25 12,21.4 13.46,23H3A1,1 0 0,1 2,22V18A1,1 0 0,1 3,17M8,5H9V3H8V5M8,13H9V11H8V13M8,21H9V19H8V21M4,3V5H6V3H4M4,11V13H6V11H4M4,19V21H6V19H4M17.5,12L22,14V17C22,19.78 20.08,22.37 17.5,23C14.92,22.37 13,19.78 13,17V14L17.5,12M17.5,13.94L15,15.06V17.72C15,19.26 16.07,20.7 17.5,21.06V13.94Z" /></svg>
